icons/nextjs-dark.svg

<svg xmlns="http://www.w3.org/2000/svg" width="256" height="256" fill="none" viewBox="0 0 256 256"><rect width="256" height="256" fill="#282828" rx="60"/><path fill="#fff" d="M121.451 28.0537C121.021 28.0928 119.652 28.2297 118.42 28.3274C90.0137 30.8885 63.4057 46.216 46.5533 69.7742C37.1691 82.8729 31.1672 97.7312 28.8993 113.469C28.0978 118.963 28 120.586 28 128.034C28 135.483 28.0978 137.106 28.8993 142.599C34.3343 180.155 61.0596 211.71 97.306 223.401C103.797 225.493 110.639 226.92 118.42 227.78C121.451 228.112 134.549 228.112 137.58 227.78C151.011 226.294 162.389 222.971 173.611 217.242C175.331 216.363 175.664 216.128 175.429 215.933C175.273 215.815 167.941 205.981 159.144 194.095L143.152 172.492L123.112 142.834C112.086 126.529 103.015 113.195 102.936 113.195C102.858 113.176 102.78 126.353 102.741 142.443C102.682 170.615 102.663 171.749 102.311 172.413C101.803 173.371 101.412 173.762 100.59 174.193C99.9648 174.505 99.4174 174.564 96.4653 174.564H93.0831L92.1838 173.997C91.5973 173.626 91.1672 173.137 90.8739 172.57L90.4633 171.69L90.5024 132.492L90.5611 93.2737L91.1672 92.5112C91.48 92.1007 92.1447 91.5728 92.6139 91.3186C93.4154 90.9276 93.7283 90.8885 97.1105 90.8885C101.099 90.8885 101.763 91.0449 102.8 92.1789C103.093 92.4917 113.943 108.836 126.925 128.523C139.906 148.21 157.658 175.092 166.377 188.288L182.213 212.277L183.015 211.749C190.111 207.135 197.619 200.566 203.562 193.723C216.211 179.197 224.364 161.485 227.101 142.599C227.902 137.106 228 135.483 228 128.034C228 120.586 227.902 118.963 227.101 113.469C221.666 75.913 194.94 44.3587 158.694 32.6676C152.301 30.5953 145.498 29.1681 137.873 28.3079C135.996 28.1124 123.073 27.8973 121.451 28.0537ZM162.389 88.5425C163.327 89.0117 164.09 89.911 164.364 90.8494C164.52 91.3577 164.559 102.228 164.52 126.724L164.461 161.876L158.264 152.374L152.047 142.873V117.321C152.047 100.801 152.125 91.5141 152.242 91.0645C152.555 89.9697 153.239 89.1095 154.178 88.6011C154.979 88.1906 155.273 88.1515 158.342 88.1515C161.236 88.1515 161.744 88.1906 162.389 88.5425Z"/></svg>

<svg xmlns="http://www.w3.org/2000/svg" width="256" height="256" fill="none"><rect width="256" height="256" fill="#282828" rx="60"/><path fill="#fff" d="M121.451 28.054c-.43.039-1.799.176-3.031.273-28.406 2.561-55.014 17.889-71.867 41.447C37.17 82.873 31.167 97.731 28.9 113.47c-.801 5.494-.899 7.117-.899 14.565 0 7.449.098 9.072.9 14.565 5.434 37.556 32.16 69.111 68.406 80.802 6.491 2.092 13.333 3.519 21.114 4.379 3.031.332 16.129.332 19.16 0 13.431-1.486 24.809-4.809 36.031-10.538 1.72-.879 2.053-1.114 1.818-1.309-.156-.118-7.488-9.952-16.285-21.838l-15.992-21.603-20.04-29.658c-11.026-16.305-20.097-29.639-20.176-29.639-.078-.019-.156 13.158-.195 29.248-.059 28.172-.078 29.306-.43 29.97-.508.958-.899 1.349-1.721 1.78-.625.312-1.173.371-4.125.371h-3.382l-.9-.567a3.65 3.65 0 0 1-1.31-1.427l-.41-.88.04-39.198.058-39.218.606-.763c.313-.41.978-.938 1.447-1.192.801-.391 1.114-.43 4.496-.43 3.989 0 4.653.156 5.69 1.29.293.313 11.143 16.657 24.125 36.344a89122 89122 0 0 0 39.452 59.765l15.836 23.989.802-.528c7.096-4.614 14.604-11.183 20.547-18.026 12.649-14.526 20.802-32.238 23.539-51.124.801-5.493.899-7.116.899-14.565s-.098-9.071-.899-14.565c-5.435-37.556-32.161-69.11-68.407-80.801-6.393-2.073-13.196-3.5-20.821-4.36-1.877-.196-14.8-.41-16.422-.254m40.938 60.489c.938.469 1.701 1.368 1.975 2.306.156.509.195 11.379.156 35.875l-.059 35.152-6.197-9.502-6.217-9.501v-25.552c0-16.52.078-25.807.195-26.257.313-1.094.997-1.954 1.936-2.463.801-.41 1.095-.45 4.164-.45 2.894 0 3.402.04 4.047.392"/></svg>
